X: 33
T: The Girl I Left Behind Me
P: piffero primo b0056
O: safd 074
F: http://ancients.sudburymuster.org/mus/med/pdf/fyf05F.pdf
Z: 2020 John Chambers <jc:trillian.mit.edu>
M: 2/4
L: 1/16
K: G
gf |\
e2d2 B2G2 | A2G2 E3F | G2G2 GABc | (d4 B2)(gf) |\
e2d2 B2G2 | A2G2 E3G | F2A2 D2EF | G4 G2 :|
|: (GA) |\
B2d2 e2f2 |(g2d2) B2GG | B2d2 e2f2 | (g4 f2)(gf) |\
e2d2 B2G2 | A2G2 E3G | F2A2 D2EF | G4 G2 :|


